X:1
T:Title
%%score { 1 | 2 }
L:1/8
Q:1/4=100
M:2/4
K:Eb
V:1 treble nm="Grand Piano"
V:2 bass 
V:1
 [GB]>[_G=A] [=GB]>[_Ac] | [GB]2 G2 | e>d e>[Ec] | [EB]4 | [FA]>[EG] [FA]>[GB] | [FA]2 [DF]2 | %6
w: J.~W.~Suffern * * *||||||
 G>B c>=A | [B,EB]4 | [B,GB]>[C_G=A] [B,=GB]>[E_Ac] | [EGB]2 [B,EG]2 | [B,DF]>[B,EG] [B,FA]>[EGB] | %11
w: |||||
 [EAc]4 | [Ece]>[EBd] [EBe]>[EAc] | [EGB]2 [B,EG]2 | [Ec]>c d>[Ad] | [Ge]4 |] %16
w: |||||
V:2
 [E,B,]>[E,C] [E,B,]>[E,E] | [E,E]2 [E,B,E]2 | [A,,CE]>[A,,=B,E] [A,,CE]>[C,A,] | [E,G,]4 | %4
 [B,,B,]>[B,,B,] [B,,B,]>[B,,B,] | [B,,B,]2 [B,,B,]2 | [E,B,E]>[G,B,E] [F,=A,E]>[F,CE] | B,,4 | %8
 E,>E, E,>E, | E,2 E,2 | A,>G, F,>E, | A,4 | A,,>A,, A,,>C, | E,2 E,2 | %14
 [C,A,]>[K:treble][F,=A,F] [B,F]>[K:bass][B,,B,] | [E,B,]4 |] %16

